icons/svg/subway/subway_yerevan.svg

<?xml version="1.0" encoding="UTF-8" standalone="no"?>
<svg
   xmlns:dc="http://purl.org/dc/elements/1.1/"
   xmlns:cc="http://creativecommons.org/ns#"
   xmlns:rdf="http://www.w3.org/1999/02/22-rdf-syntax-ns#"
   xmlns:svg="http://www.w3.org/2000/svg"
   xmlns="http://www.w3.org/2000/svg"
   xmlns:sodipodi="http://sodipodi.sourceforge.net/DTD/sodipodi-0.dtd"
   xmlns:inkscape="http://www.inkscape.org/namespaces/inkscape"
   width="16"
   height="16"
   id="svg2"
   version="1.1"
   inkscape:version="0.91 r"
   sodipodi:docname="subway_yerevan.svg">
  <defs
     id="defs13">
    <linearGradient
       gradientTransform="matrix(0.08596979,0,0,0.08596979,0.67480439,1.9432845)"
       x1="87.101639"
       y1="121.69753"
       x2="87.260849"
       y2="1.2385538"
       id="l1"
       gradientUnits="userSpaceOnUse">
      <stop
         style="stop-color:#e92203;stop-opacity:1"
         offset="0"
         id="stop5" />
      <stop
         style="stop-color:#ff0000;stop-opacity:0.64628822"
         offset="1"
         id="stop7" />
    </linearGradient>
    <linearGradient
       gradientTransform="matrix(0.08400469,0,0,0.08400469,0.8422306,2.0814238)"
       x1="87.101639"
       y1="121.69753"
       x2="87.260849"
       y2="1.2385538"
       id="l1-2"
       gradientUnits="userSpaceOnUse">
      <stop
         style="stop-color:#e92203;stop-opacity:1"
         offset="0"
         id="stop5-8" />
      <stop
         style="stop-color:#ff0000;stop-opacity:0.64628822"
         offset="1"
         id="stop7-4" />
    </linearGradient>
  </defs>
  <sodipodi:namedview
     pagecolor="#ffffff"
     bordercolor="#666666"
     borderopacity="1"
     objecttolerance="10"
     gridtolerance="10"
     guidetolerance="10"
     inkscape:pageopacity="0"
     inkscape:pageshadow="2"
     inkscape:window-width="1920"
     inkscape:window-height="1004"
     id="namedview11"
     showgrid="true"
     inkscape:zoom="45.254834"
     inkscape:cx="6.1208144"
     inkscape:cy="8.6946459"
     inkscape:window-x="1680"
     inkscape:window-y="0"
     inkscape:window-maximized="1"
     inkscape:current-layer="svg2"
     showguides="false"
     inkscape:snap-global="false">
    <sodipodi:guide
       position="0,0"
       orientation="0,580"
       id="guide2989" />
    <sodipodi:guide
       position="580,0"
       orientation="-580,0"
       id="guide2991" />
    <sodipodi:guide
       position="580,580"
       orientation="0,-580"
       id="guide2993" />
    <sodipodi:guide
       position="0,580"
       orientation="580,0"
       id="guide2995" />
    <sodipodi:guide
       position="0,0"
       orientation="0,580"
       id="guide2997" />
    <sodipodi:guide
       position="580,0"
       orientation="-580,0"
       id="guide2999" />
    <sodipodi:guide
       position="580,580"
       orientation="0,-580"
       id="guide3001" />
    <sodipodi:guide
       position="0,580"
       orientation="580,0"
       id="guide3003" />
    <inkscape:grid
       type="xygrid"
       id="grid3013"
       empspacing="5"
       visible="true"
       enabled="true"
       snapvisiblegridlinesonly="true" />
  </sodipodi:namedview>
  <metadata
     id="metadata2975">image/svg+xmlen<rdf:RDF>
  <cc:Work
     rdf:about="">
    <dc:format>image/svg+xml</dc:format>
    <dc:type
       rdf:resource="http://purl.org/dc/dcmitype/StillImage" />
    <dc:title />
  </cc:Work>
</rdf:RDF>
</metadata>
  <path
     style="opacity:1;fill:#fefefe;fill-opacity:1;fill-rule:evenodd;stroke:none;stroke-width:1px;stroke-linecap:butt;stroke-linejoin:miter;stroke-opacity:1"
     d="M 8.893733,3.6910624 C 8.5832793,3.6749252 8.2640395,3.6794258 7.9341698,3.7081466 5.4260285,3.9265234 3.9251643,4.9889311 3.1078802,6.0486835 2.6992381,6.5785597 2.4571836,7.1012595 2.3163118,7.5136545 2.2458759,7.7198521 2.2004341,7.8979654 2.1725197,8.0404177 2.146434,8.1735369 2.131294,8.2258418 2.139775,8.386373 c -0.00614,0.3461057 0.052731,0.7589159 0.1452158,1.150337 9.032e-4,0.028713 6.119e-4,0.064547 0.00284,0.079726 0.0071,0.048255 0.014852,0.06833 0.021355,0.091116 0.013005,0.04558 0.026963,0.084373 0.045558,0.1309786 0.03719,0.093213 0.090217,0.2086024 0.166571,0.3431074 0.1527073,0.269012 0.3957966,0.613219 0.7602474,0.945327 0.7289017,0.664215 1.964806,1.257663 3.7699159,1.079152 C 9.9981495,11.914716 11.214458,9.8308098 11.48341,9.3359702 l 0.943903,0.012813 c 0.209372,0.00287 0.402128,-0.1136622 0.496866,-0.3003972 l 0.24345,-0.482629 c 0.05924,-0.1180665 0.0739,-0.2535414 0.04129,-0.3815473 0.09248,-0.053812 0.167197,-0.1334841 0.214976,-0.2292132 L 13.917915,6.9655362 C 14.00097,6.7990536 13.994,6.6018277 13.899407,6.4416203 l -0.0014,-0.00142 c -0.01997,-0.052341 -0.04782,-0.1013134 -0.08259,-0.1452206 -0.06719,-0.084843 -0.114139,-0.1302213 -0.126675,-0.145218 l -0.0029,-0.00285 c 0.07098,0.083756 0.05221,0.061525 -0.0056,-0.00712 -0.0076,-0.00895 0.0098,0.010101 0,-0.00142 -0.04279,-0.05062 -0.09442,-0.093065 -0.152348,-0.1252806 C 12.46734,4.8132467 10.907841,3.7957542 8.893733,3.6910624 Z"
     id="path4381"
     inkscape:connector-curvature="0"
     sodipodi:nodetypes="sssssccccssssccccccccccccsccs" />
  <path
     style="fill:#2d195f;fill-opacity:1;fill-rule:evenodd;stroke:none;stroke-width:1px;stroke-linecap:butt;stroke-linejoin:miter;stroke-opacity:1"
     d="M 8.8652593,4.2391809 C 8.5794206,4.2243232 8.2853782,4.2283532 7.9811514,4.2548413 3.2255865,4.6688949 2.6675015,8.1458552 2.6836223,8.3707125 2.675484,8.684262 2.7301538,9.148816 2.8316855,9.5281678 2.7969679,9.536847 3.6614025,11.989326 6.9973856,11.659423 10.006123,11.361882 11.224304,8.783581 11.224304,8.783581 l 1.210132,0.017084 0.243449,-0.482629 c 0,0 -0.292802,-0.00272 -1.718386,0.00284 -1.2053101,2.7676373 -4.084042,3.0342463 -4.1158713,2.9811943 0,0 -1.328611,0.144513 -2.3875185,-0.462698 l 2.1796606,-0.02135 c 0.5446433,-0.0022 2.6960574,-0.340803 3.6930372,-3.1079028 2.356321,0.00154 2.603918,0 2.603918,0 L 13.426743,6.7206617 C 12.254057,4.9455408 10.232945,4.3344982 8.8652593,4.2391809 Z M 8.6460119,4.6605914 c 2.4422841,0.059548 3.6950631,1.321846 4.1116001,1.8322816 l -2.499989,0.00143 C 10.201541,6.688789 9.6945693,9.972414 6.4720461,10.39804 7.6992688,7.4544574 8.0138961,6.5170755 8.0138961,6.5170756 L 6.0506355,6.4942967 4.3649934,10.789553 C 3.8669479,10.4784 3.4399166,9.9902465 3.2616381,9.2220756 2.700298,6.80336 5.4437555,4.8331364 8.0167435,4.6734045 8.2343814,4.6598935 8.4439977,4.6556659 8.6460119,4.6605914 Z"
     id="path4361"
     inkscape:connector-curvature="0"
     sodipodi:nodetypes="csccscccccccccccsccccccsss" />
</svg>

<svg width="16" height="16" viewBox="0 0 16 16" fill="none" xmlns="http://www.w3.org/2000/svg">
<path fill-rule="evenodd" clip-rule="evenodd" d="M8.89371 3.69105C8.58326 3.67492 8.26402 3.67942 7.93415 3.70814C5.42601 3.92651 3.92514 4.98892 3.10786 6.04867C2.69922 6.57855 2.45716 7.10125 2.31629 7.51365C2.24585 7.71984 2.20041 7.89796 2.1725 8.04041C2.14641 8.17353 2.13127 8.22583 2.13975 8.38636C2.13361 8.73247 2.19248 9.14528 2.28497 9.5367C2.28587 9.56541 2.28558 9.60125 2.28781 9.61643C2.29491 9.66468 2.30266 9.68476 2.30916 9.70754C2.32217 9.75312 2.33613 9.79192 2.35472 9.83852C2.39191 9.93173 2.44494 10.0471 2.52129 10.1816C2.674 10.4506 2.91709 10.7948 3.28154 11.127C4.01044 11.7912 5.24635 12.3846 7.05146 12.2061C9.99813 11.9147 11.2144 9.8308 11.4834 9.33596L12.4273 9.34877C12.6367 9.35164 12.8294 9.23511 12.9242 9.04838L13.1676 8.56575C13.2268 8.44768 13.2415 8.31221 13.2089 8.1842C13.3014 8.13039 13.3761 8.05072 13.4239 7.95499L13.9179 6.96553C14.0009 6.79904 13.994 6.60182 13.8994 6.44161L13.898 6.44019C13.878 6.38785 13.8502 6.33888 13.8154 6.29497C13.7482 6.21013 13.7013 6.16475 13.6887 6.14975L13.6858 6.1469C13.7568 6.23066 13.738 6.20843 13.6802 6.13978C13.6726 6.13083 13.69 6.14988 13.6802 6.13836C13.6374 6.08774 13.5858 6.0453 13.5279 6.01308C12.4673 4.81324 10.9078 3.79574 8.89371 3.69105Z" fill="#FEFEFE"/>
<path fill-rule="evenodd" clip-rule="evenodd" d="M8.86523 4.23918C8.57939 4.22432 8.28535 4.22835 7.98112 4.25484C3.22556 4.66889 2.66747 8.14585 2.6836 8.37071C2.67546 8.68426 2.73013 9.14882 2.83166 9.52817C2.79694 9.53685 3.66138 11.9893 6.99736 11.6594C10.0061 11.3619 11.2243 8.78358 11.2243 8.78358L12.4344 8.80066L12.6779 8.31804C12.6779 8.31804 12.3851 8.31532 10.9595 8.32088C9.75416 11.0885 6.87543 11.3551 6.8436 11.3021C6.8436 11.3021 5.51499 11.4466 4.45608 10.8394L6.63574 10.818C7.18039 10.8158 9.3318 10.4772 10.3288 7.71012C12.6851 7.71166 12.9327 7.71012 12.9327 7.71012L13.4267 6.72066C12.254 4.94554 10.2329 4.3345 8.86523 4.23918ZM8.64599 4.66059C11.0883 4.72014 12.341 5.98244 12.7576 6.49287L10.2576 6.4943C10.2015 6.68879 9.69454 9.97241 6.47202 10.398C7.69924 7.45446 8.01387 6.51708 8.01387 6.51708L6.05061 6.4943L4.36497 10.7896C3.86692 10.4784 3.43989 9.99025 3.26161 9.22208C2.70027 6.80336 5.44373 4.83314 8.01672 4.6734C8.23435 4.65989 8.44397 4.65567 8.64599 4.66059Z" fill="#2D195F"/>
</svg>
